X: 20818
T: Johnny When You Die
R: reel
M: 4/4
K: Gmajor
eBB2 eBdB|A2GA BAA2|eBB2 eBdB|A2GA BGG2|
eBB2 eBdB|A2GA BAA2|GBB2 dBB2|A2GA BGG2|
g2fg egde|g2fg eaaf|g2fg egdB|A2GA BGG2|
g2fg egde|g2fg eaa2|bgaf gedB|A2GA BGG2|

